X: 4
T:The Border Reel
R:Reel
M:C|
L:1/8
K:Hp
BBcA B2ce | f2ae fecB | AAcB AAcd | e2fc ecdc |
BBcA B2ce | f2ae fecB | Acae fece | f2B2 B2ce ||
f2ae fece | f2B2 B2cd | e2fc eacB | A2Ac efce |
f2ae fece | fBBa f2ec | Acae fece | f2B2 B4 |]

